X:16
T:Bobcat Shuffle
C: Bob Pasquarello
R: reel
M:C|
K:Am
|: "Am"A2B2"G"c2d2 |"F"ea2b "E"aged|"Am"ea2b "G"aged|"F"cBcd "E"B4|
"Am"A2B2"G"c2d2 |"F"ea2b "E"aged|"Am"cBcd "Dm"efed | "Am"c2x"E"B2x"Am"A4:|
|:"D#dim"^d4xx"Am"e2AB| "F"cBcd"E"e2e2 |"Am"cBcd "G"efed|"F"cBcd"E"B4|
"D#dim"^d4xx"Am"e2AB| "F"cBcd"E"e2e2 |"Am"cBcd "Dm"efed| "Am"c2x"E"B2x"Am"A4:|
W:  1981 Bob Pasquarello. All rights reserved. Used by permission.
